public/svgs/contrast.svg

<svg height="11" viewBox="0 0 18 11" width="18" xmlns="http://www.w3.org/2000/svg"><path d="m12.5475 0c-1.2269545 0-2.4172938.41804739-3.375 1.185-1.86091076-1.4824331-4.47080669-1.5786545-6.43582549-.23727542-1.9650188 1.34137909-2.82612248 3.80700595-2.12342298 6.08006779s2.80504815 3.82256033 5.18424847 3.82095883c1.22766332.000331 2.41853479-.4191204 3.375-1.1887512 1.8598766 1.4789692 4.4663375 1.5736571 6.4286262.23354001 1.9622887-1.34011707 2.8225396-3.80234625 2.1217396-6.07289028s-2.7991314-3.81961125-5.1753658-3.82064973zm-3.375 8.6475c-1.72958707-1.80215448-1.72958707-4.64784552 0-6.45 1.7295871 1.80215448 1.7295871 4.64784552 0 6.45zm-8.04753913-3.225c-.00578896-1.77786217.99942971-3.40447293 2.5921467-4.19446055 1.59271698-.78998763 3.49599645-.60599195 4.90789243.47446055-1.98523813 2.08415474-1.98523813 5.35959526 0 7.44375-1.41243287 1.0808717-3.31657279 1.2645686-4.90958279.47363918-1.59301-.79092947-2.59768128-2.41885115-2.59045634-4.19738918zm11.42253913 4.6762541c-1.0111281-.0056755-1.9929935-.33998359-2.7975-.9525041 1.9852381-2.08415474 1.9852381-5.35959526 0-7.44375 1.623097-1.23021562 3.8560579-1.26740525 5.5192214-.09192181s2.3733562 3.29282226 1.7553871 5.23343774-2.4217272 3.25741247-4.4583585 3.25473817z" fill="#a9acd3"/></svg>

<?xml version="1.0" encoding="UTF-8"?>
<svg width="18px" height="11px" viewBox="0 0 18 11" version="1.1" xmlns="http://www.w3.org/2000/svg" xmlns:xlink="http://www.w3.org/1999/xlink">
    <!-- Generator: Sketch 63.1 (92452) - https://sketch.com -->
    <desc>Created with Sketch.</desc>
    <g id="Page-1" stroke="none" stroke-width="1" fill="none" fill-rule="evenodd">
        <g id="Home-dark-Copy" transform="translate(-28.000000, -97.000000)" fill="#A9ACD3" fill-rule="nonzero">
            <g id="conrast" transform="translate(28.000000, 97.000000)">
                <path d="M12.5475,-6.66133815e-16 C11.3205455,-6.66133815e-16 10.1302062,0.418047385 9.1725,1.185 C7.31158924,-0.297433098 4.70169331,-0.393654499 2.73667451,0.947724583 C0.771655706,2.28910367 -0.0894479709,4.75473053 0.613251532,7.02779237 C1.31595103,9.30085421 3.41829968,10.8503527 5.7975,10.8487512 C7.02516332,10.8490822 8.21603479,10.4296308 9.1725,9.66 C11.0323766,11.1389692 13.6388375,11.2336571 15.6011262,9.89354001 C17.5634149,8.55342294 18.4236658,6.09119376 17.7228658,3.82064973 C17.0220658,1.5501057 14.9237344,0.00103848206 12.5475,-6.66133815e-16 L12.5475,-6.66133815e-16 Z M9.1725,8.6475 C7.44291293,6.84534552 7.44291293,3.99965448 9.1725,2.1975 C10.9020871,3.99965448 10.9020871,6.84534552 9.1725,8.6475 L9.1725,8.6475 Z M1.12496087,5.4225 C1.11917191,3.64463783 2.12439058,2.01802707 3.71710757,1.22803945 C5.30982455,0.43805182 7.21310402,0.622047505 8.625,1.7025 C6.63976187,3.78665474 6.63976187,7.06209526 8.625,9.14625 C7.21256713,10.2271217 5.30842721,10.4108186 3.71541721,9.61988918 C2.12240721,8.82895971 1.11773593,7.20103803 1.12496087,5.4225 Z M12.5475,10.0987541 C11.5363719,10.0930786 10.5545065,9.75877051 9.75,9.14625 C11.7352381,7.06209526 11.7352381,3.78665474 9.75,1.7025 C11.373097,0.472284377 13.6060579,0.435094745 15.2692214,1.61057819 C16.9323849,2.78606163 17.6425776,4.90340045 17.0246085,6.84401593 C16.4066394,8.78463141 14.6028813,10.1014284 12.56625,10.0987541 L12.5475,10.0987541 Z" id="Shape"></path>
            </g>
        </g>
    </g>
</svg>
